src/categories-icons-sprite/categories/svg-cat-accessories-adult.svg

<svg width="32" height="32" viewBox="0 0 32 32" fill="none" xmlns="http://www.w3.org/2000/svg">
<path class="p-FF9100" d="M25.8857 23.3142L24.292 21.7205L22.405 23.6074L23.9988 25.2012L25.8857 23.3142Z" fill="#65B3E7"/>
<path class="p-FFDA2D" d="M24.9938 0L20.79 4.20381L27.7963 11.2101L32.0002 7.00631L24.9938 0Z" fill="#B9DFFC"/>
<path class="p-FDBF00" d="M28.7246 13.1124L26.0481 13.2385L19.5043 6.69462L18.8877 3.27555C19.4202 2.74308 19.4482 2.74308 19.4482 2.74308L21.7043 0.487061L31.5131 10.2959L29.2571 12.5519C29.2571 12.5519 29.229 12.608 28.7246 13.1124Z" fill="#5FBEFF"/>
<path class="p-FDBF00" d="M28.4967 3.50329L24.293 7.70703L27.7961 11.2102L31.9998 7.00641L28.4967 3.50329Z" fill="#A1D1FD"/>
<path class="p-FF9100" d="M26.0476 13.2384L22.4043 9.59517L26.6081 5.39136L31.5125 10.2958L29.2565 12.5518C29.2565 12.5518 29.2284 12.6079 28.724 13.1123L26.0476 13.2384Z" fill="#65B3E7"/>
<path class="p-FFDA2D" d="M4.40198 20.5916L0 24.9935L7.00631 31.9998L11.4083 27.5979L4.40198 20.5916Z" fill="#B9DFFC"/>
<path class="p-FDBF00" d="M13.3099 28.5264C12.8055 29.0308 12.7494 29.0589 12.7494 29.0589L10.4934 31.3149L0.68457 21.506L2.94059 19.25C2.94059 19.25 2.96866 19.1939 3.47306 18.6895L6.93421 19.3481L13.5341 25.948L13.3099 28.5264Z" fill="#5FBEFF"/>
<path class="p-FDBF00" d="M3.50274 28.4969L7.00586 32L11.4078 27.5981L7.90467 24.0949L3.50274 28.4969Z" fill="#A1D1FD"/>
<path class="p-FF9100" d="M13.534 25.9479L13.3098 28.5263C12.8054 29.0307 12.7493 29.0587 12.7493 29.0587L10.4933 31.3147L5.58887 26.4103L9.79268 22.2065L13.534 25.9479Z" fill="#65B3E7"/>
<path class="p-FFDA2D" d="M26.8187 17.6807C27.0709 16.1673 27.5613 14.8641 28.2761 13.7852L28.7244 13.1126L18.8875 3.27563L18.2149 3.72396C17.136 4.43868 15.8327 4.92909 14.3474 5.18135C12.0633 5.53165 10.0035 6.5826 8.39204 8.19411C6.78067 9.80548 5.72958 11.8654 5.37929 14.1214C5.12708 15.6348 4.63675 16.938 3.92202 18.0169L3.47363 18.6895L13.3104 28.5264L13.9831 28.0781C15.062 27.3633 16.3651 26.873 17.8505 26.6208C20.1346 26.2705 22.1945 25.2194 23.8058 23.608C25.4174 21.9965 26.4684 19.9367 26.8187 17.6807Z" fill="#B9DFFC"/>
<path class="p-FDBF00" d="M23.8055 23.6078C22.1941 25.2192 20.1342 26.2702 17.8501 26.6205C16.3648 26.8727 15.0616 27.3631 13.9827 28.0778L13.3101 28.5262L8.3916 23.6077L23.8055 8.19385L28.7239 13.1123L28.2756 13.7849C27.5609 14.8638 27.0705 16.1671 26.8182 17.6804C26.4679 19.9365 25.417 21.9963 23.8055 23.6078Z" fill="#A1D1FD"/>
<path class="p-68544F" d="M21.0031 10.9963C18.2987 8.29192 13.8987 8.29192 11.1943 10.9963C8.48991 13.7007 8.48991 18.1007 11.1943 20.8051C13.8987 23.5095 18.2987 23.5095 21.0031 20.8051C23.7075 18.1007 23.7075 13.7008 21.0031 10.9963Z" fill="#58ADE5"/>
<path class="p-53433F" d="M11.1943 20.8054L21.0031 10.9966C23.7075 13.701 23.7075 18.101 21.0031 20.8054C18.2987 23.5098 13.8988 23.5098 11.1943 20.8054Z" fill="#4D98CB"/>
<path class="p-FDBF00" d="M17.9878 18.2165L17.5008 18.7035L14.6982 15.9009L17.5008 13.0984L18.902 14.4996L16.5865 16.8152L17.9878 18.2165Z" fill="#5FBEFF"/>
<path class="p-FDBF00" d="M18.4146 19.6178L15.3984 16.6016L18.2009 13.7991L18.9016 14.4997L16.5861 16.8152L18.9016 19.1308L18.4146 19.6178Z" fill="#AFD9F6"/>
</svg>

<svg width="32" height="32" fill="none" xmlns="http://www.w3.org/2000/svg"><path class="p-FF9100" d="M25.886 23.314l-1.594-1.593-1.887 1.886 1.594 1.594 1.887-1.887z" fill="#65B3E7"/><path class="p-FFDA2D" d="M24.994 0L20.79 4.204l7.006 7.006L32 7.006 24.994 0z" fill="#B9DFFC"/><path class="p-FDBF00" d="M28.725 13.112l-2.677.127-6.544-6.544-.616-3.42c.532-.532.56-.532.56-.532L21.704.487l9.81 9.809-2.257 2.256s-.028.056-.532.56z" fill="#5FBEFF"/><path class="p-FDBF00" d="M28.497 3.503l-4.204 4.204 3.503 3.503L32 7.006l-3.503-3.503z" fill="#A1D1FD"/><path class="p-FF9100" d="M26.048 13.238l-3.644-3.643 4.204-4.204 4.904 4.905-2.256 2.256s-.028.056-.532.56l-2.676.126z" fill="#65B3E7"/><path class="p-FFDA2D" d="M4.402 20.592L0 24.994 7.006 32l4.402-4.402-7.006-7.006z" fill="#B9DFFC"/><path class="p-FDBF00" d="M13.31 28.526c-.505.505-.56.533-.56.533l-2.257 2.256-9.808-9.809L2.94 19.25s.028-.056.532-.56l3.461.658 6.6 6.6-.224 2.578z" fill="#5FBEFF"/><path class="p-FDBF00" d="M3.503 28.497L7.006 32l4.402-4.402-3.503-3.503-4.402 4.402z" fill="#A1D1FD"/><path class="p-FF9100" d="M13.534 25.948l-.224 2.578c-.505.505-.56.533-.56.533l-2.257 2.256L5.59 26.41l4.204-4.204 3.741 3.742z" fill="#65B3E7"/><path class="p-FFDA2D" d="M26.819 17.68c.252-1.513.742-2.816 1.457-3.895l.448-.672-9.837-9.837-.672.448c-1.079.715-2.382 1.205-3.868 1.457a10.658 10.658 0 00-5.955 3.013 10.67 10.67 0 00-3.013 5.927c-.252 1.514-.742 2.817-1.457 3.896l-.448.672 9.836 9.837.673-.448c1.079-.715 2.382-1.205 3.867-1.457a10.658 10.658 0 005.956-3.013 10.67 10.67 0 003.013-5.927z" fill="#B9DFFC"/><path class="p-FDBF00" d="M23.805 23.608a10.658 10.658 0 01-5.955 3.012c-1.485.253-2.788.743-3.867 1.458l-.673.448-4.918-4.918L23.805 8.194l4.919 4.918-.448.673c-.715 1.079-1.206 2.382-1.458 3.895a10.67 10.67 0 01-3.013 5.928z" fill="#A1D1FD"/><path class="p-68544F" d="M21.003 10.996a6.944 6.944 0 00-9.809 0 6.944 6.944 0 000 9.81 6.944 6.944 0 009.81 0 6.944 6.944 0 000-9.81z" fill="#58ADE5"/><path class="p-53433F" d="M11.194 20.805l9.81-9.808a6.944 6.944 0 010 9.808 6.944 6.944 0 01-9.81 0z" fill="#4D98CB"/><path class="p-FDBF00" d="M17.988 18.216l-.487.487-2.803-2.802 2.803-2.803 1.401 1.402-2.316 2.315 1.402 1.401z" fill="#5FBEFF"/><path class="p-FDBF00" d="M18.415 19.618l-3.017-3.016 2.803-2.803.7.7-2.315 2.316 2.316 2.316-.487.487z" fill="#AFD9F6"/></svg>
